!! 00008] TT[TB
!! Eigene Aufnahme
!!!OTL: Qing si niao
!!!ARE: Asia, China,ˇZhejiang, Lanxi
!! Ethnic Group: Han
!! III, 642, 1)
!!!SCT: C0175
!!!YEM: Copyright 1995, estate of Helmut Schaffrath.
**kern
*ICvox
*Ivox
*M2/4
*k[b-]
*F:
{8f
8f
8a
8a
=1
8r
8cc
8.a
16cc
=2
4a
8a
8g
=3
4f}
{8g
8f
=4
4g
8a
8g
=5
8f
8g
8f
8d
=6
4d
4r}
=7
{8cc
8a
8cc
8a
=8
8f
8g
8f
8g
=9
4f}
{8f
8d
=10
4f
8a
8g
=11
4f
8f
8d
=12
4d
4r}
=13
{8d
8f
8d
8f
=14
8r
8cc
8a
8cc
=15
4a
8a
8g
=16
4f}
{8g
8f
=17
4g
8a
8g
=18
4f
8f
8d
=19
4d
4r}
==
!!!AGN: Shange. FunÅ ku
!! Gehoert auch zur Ballade: Ein jung verheiratetes Maedchen geht
!!    zurueck in ihr Elternhaus, um sich dort ueber ihre Schwieger-
!!    Eltern zu beklagen. Dort spricht sie mit ihrer Schwaegerin, die
!!    bei ihren Eltern lebt aber dieselben Klagen hat.
!!    Saengerin: Huang Bai
!!    Auf dem Band hoert man im Hintergrund das Telefon, das wegen zu
!!    vieler Stoerungen neben die Gabel gelegt wurde.
!!!ONB: ESAC (Essen Associative Code) Database: CHINA
!!!AMT: simple duple
!!!AIN: vox
!!!EED: Helmut Schaffrath
!!!EEV: 1.0
*-
